docs/.gitbook/assets/icon-key-16@light.svg

<svg width="32" height="32" viewBox="0 0 16 16" fill="none" xmlns="http://www.w3.org/2000/svg">
<rect x="0" y="0" width="16" height="16" fill="#fff"/>
<path fill-rule="evenodd" clip-rule="evenodd" d="M7.49992 5.5C7.49992 3.84315 8.84307 2.5 10.4999 2.5C12.1568 2.5 13.4999 3.84315 13.4999 5.5C13.4999 7.15685 12.1568 8.5 10.4999 8.5H10.4989H10.4979H10.4969H10.4959H10.4949H10.4939H10.4929H10.4919H10.4908H10.4898H10.4888H10.4877H10.4867H10.4857H10.4846H10.4836H10.4825H10.4815H10.4804H10.4793H10.4783H10.4772H10.4761H10.4751H10.474H10.4729H10.4718H10.4707H10.4697H10.4686H10.4675H10.4664H10.4653H10.4642H10.4631H10.4619H10.4608H10.4597H10.4586H10.4575H10.4563H10.4552H10.4541H10.453H10.4518H10.4507H10.4495H10.4484H10.4473H10.4461H10.445H10.4438H10.4426H10.4415H10.4403H10.4392H10.438H10.4368H10.4357H10.4345H10.4333H10.4321H10.4309H10.4298H10.4286H10.4274H10.4262H10.425H10.4238H10.4226H10.4214H10.4202H10.419H10.4178H10.4166H10.4154H10.4142H10.413H10.4118H10.4105H10.4093H10.4081H10.4069H10.4057H10.4044H10.4032H10.402H10.4007H10.3995H10.3983H10.397H10.3958H10.3946H10.3933H10.3921H10.3908H10.3896H10.3883H10.3871H10.3858H10.3846H10.3833H10.3821H10.3808H10.3796H10.3783H10.377H10.3758H10.3745H10.3732H10.372H10.3707H10.3694H10.3682H10.3669H10.3656H10.3644H10.3631H10.3618H10.3605H10.3592H10.358H10.3567H10.3554H10.3541H10.3528H10.3516H10.3503H10.349H10.3477H10.3464H10.3451H10.3438H10.3426H10.3413H10.34H10.3387H10.3374H10.3361H10.3348H10.3335H10.3322H10.3309H10.3296H10.3283H10.327H10.3257H10.3244H10.3231H10.3218H10.3205H10.3192H10.3179H10.3166H10.3153H10.314H10.3127H10.3114H10.3101H10.3088H10.3075H10.3062H10.3049H10.3036H10.3023H10.301H10.2997H10.2984H10.2971H10.2958H10.2945H10.2932H10.2919H10.2906H10.2893H10.288H10.2867H10.2854H10.2841H10.2828H10.2815H10.2802H10.2789H10.2776H10.2763H10.275H10.2737H10.2724H10.2711H10.2698H10.2685H10.2672H10.2659H10.2646H10.2633H10.262H10.2607H10.2595H10.2582H10.2569H10.2556H10.2543H10.253H10.2517H10.2504H10.2491H10.2479H10.2466H10.2453H10.244H10.2427H10.2414H10.2402H10.2389H10.2376H10.2363H10.235H10.2338H10.2325H10.2312H10.23H10.2287H10.2274H10.2261H10.2249H10.2236H10.2224H10.2211H10.2198H10.2186H10.2173H10.2161H10.2148H10.2135H10.2123H10.211H10.2098H10.2085H10.2073H10.206H10.2048H10.2036H10.2023H10.2011H10.1998H10.1986H10.1974H10.1961H10.1949H10.1937H10.1925H10.1912H10.19H10.1888H10.1876H10.1863H10.1851H10.1839H10.1827H10.1815H10.1803H10.1791H10.1779H10.1767H10.1755H10.1743H10.1731H10.1719H10.1707H10.1695H10.1683H10.1671H10.166H10.1648H10.1636H10.1624H10.1613H10.1601H10.1589H10.1578H10.1566H10.1554H10.1543H10.1531H10.152H10.1508H10.1497H10.1485H10.1474H10.1463H10.1451H10.144H10.1428H10.1417H10.1406H10.1395H10.1384H10.1372H10.1361H10.135H10.1339H10.1328H10.1317H10.1306H10.1295H10.1284H10.1273H10.1262H10.1251H10.1241H10.123H10.1219H10.1208H10.1198H10.1187H10.1176H10.1166H10.1155H10.1145H10.1134H10.1124H10.1113H10.1103H10.1093H10.1082H10.1072H10.1062H10.1052H10.1041H10.1031H10.1021H10.1011H10.1001H10.0991H10.0981H10.0971H10.0961H10.0951H10.0942H10.0932H10.0922H10.0912H10.0903H10.0893H10.0883H10.0874H10.0864H10.0855H10.0845H10.0836H10.0827H10.0817H10.0808H10.0799H10.079H10.0781H10.0771H10.0762H10.0753H10.0744H10.0735H10.0727H10.0718H10.0709H10.07H10.0691H10.0683H10.0674H10.0666H10.0657H10.0648H10.064H10.0632H10.0623H10.0615H10.0607H10.0598H10.059H10.0582H10.0574H10.0566H10.0558H10.055H10.0542H10.0534H10.0526H10.0519H10.0511H10.0503H10.0496H10.0488H10.0481H10.0473H10.0466H10.0458H10.0451H10.0444H10.0436H10.0429H10.0422H10.0415H10.0408H10.0401H10.0394H10.0387H10.0381H10.0374H10.0367H10.036H10.0354H10.0347H10.0341H10.0334H10.0328H10.0322H10.0315H10.0309H10.0303H10.0297H10.0291H10.0285H10.0279H10.0273H10.0267H10.0261H10.0256H10.025H10.0244H10.0239H10.0233H10.0228H10.0222H10.0217H10.0212H10.0207H10.0202H10.0196H10.0191H10.0186H10.0182H10.0177H10.0172H10.0167H10.0163H10.0158H10.0153H10.0149H10.0145H10.014H10.0136H10.0132H10.0127H10.0123H10.0119H10.0115H10.0111H10.0108H10.0104H10.01H10.0096H10.0093H10.0089H10.0086H10.0082H10.0079H10.0076H10.0072H10.0069H10.0066H10.0063H10.006H10.0057H10.0055H10.0052H10.0049H10.0047H10.0044H10.0041H10.0039H10.0037H10.0034H10.0032H10.003H10.0028H10.0026H10.0024H10.0022H10.002H10.0019H10.0017H10.0016H10.0014H10.0013H10.0011H10.001H10.0009H10.0008H10.0007H10.0006H10.0005H10.0004H10.0003H10.0002H10.0002H10.0001H10.0001H10H9.99998H9.99995H9.99994H9.99992H9.75C9.55109 8.5 9.36032 8.57902 9.21967 8.71967L7.43934 10.5H6.25C5.83579 10.5 5.5 10.8358 5.5 11.25V12.3858L4.43034 13.5H2.5V12.9069C2.5 12.0449 2.84241 11.2183 3.4519 10.6088L7.28033 6.78033C7.42104 6.63962 7.50006 6.44876 7.5 6.24976L7.49992 6V5.99998V5.99997V5.99994V5.99991V5.99986V5.99982V5.99976V5.9997V5.99963V5.99955V5.99946V5.99937V5.99927V5.99916V5.99905V5.99893V5.9988V5.99866V5.99852V5.99837V5.99821V5.99804V5.99787V5.99769V5.99751V5.99731V5.99712V5.99691V5.9967V5.99647V5.99625V5.99601V5.99577V5.99552V5.99527V5.99501V5.99474V5.99446V5.99418V5.9939V5.9936V5.9933V5.99299V5.99268V5.99235V5.99203V5.99169V5.99135V5.991V5.99065V5.99029V5.98992V5.98955V5.98917V5.98878V5.98839V5.98799V5.98759V5.98718V5.98676V5.98633V5.98591V5.98547V5.98503V5.98458V5.98412V5.98366V5.9832V5.98272V5.98225V5.98176V5.98127V5.98077V5.98027V5.97976V5.97925V5.97873V5.9782V5.97767V5.97713V5.97659V5.97604V5.97548V5.97492V5.97436V5.97379V5.97321V5.97262V5.97204V5.97144V5.97084V5.97023V5.96962V5.96901V5.96838V5.96776V5.96712V5.96649V5.96584V5.96519V5.96454V5.96388V5.96321V5.96254V5.96187V5.96119V5.9605V5.95981V5.95911V5.95841V5.9577V5.95699V5.95627V5.95555V5.95482V5.95409V5.95336V5.95261V5.95187V5.95111V5.95036V5.9496V5.94883V5.94806V5.94728V5.9465V5.94571V5.94492V5.94413V5.94333V5.94252V5.94171V5.9409V5.94008V5.93926V5.93843V5.9376V5.93676V5.93592V5.93507V5.93422V5.93337V5.93251V5.93165V5.93078V5.92991V5.92903V5.92815V5.92726V5.92637V5.92548V5.92458V5.92368V5.92277V5.92186V5.92095V5.92003V5.91911V5.91818V5.91725V5.91631V5.91537V5.91443V5.91348V5.91253V5.91158V5.91062V5.90966V5.90869V5.90772V5.90675V5.90577V5.90479V5.9038V5.90281V5.90182V5.90082V5.89982V5.89882V5.89781V5.8968V5.89578V5.89477V5.89374V5.89272V5.89169V5.89066V5.88962V5.88859V5.88754V5.8865V5.88545V5.8844V5.88334V5.88228V5.88122V5.88015V5.87908V5.87801V5.87694V5.87586V5.87478V5.87369V5.87261V5.87152V5.87042V5.86933V5.86823V5.86712V5.86602V5.86491V5.8638V5.86268V5.86157V5.86045V5.85932V5.8582V5.85707V5.85594V5.85481V5.85367V5.85253V5.85139V5.85024V5.8491V5.84795V5.84679V5.84564V5.84448V5.84332V5.84216V5.841V5.83983V5.83866V5.83749V5.83631V5.83513V5.83396V5.83277V5.83159V5.8304V5.82922V5.82803V5.82683V5.82564V5.82444V5.82324V5.82204V5.82084V5.81963V5.81842V5.81721V5.816V5.81479V5.81357V5.81236V5.81114V5.80992V5.80869V5.80747V5.80624V5.80501V5.80378V5.80255V5.80131V5.80008V5.79884V5.7976V5.79636V5.79512V5.79388V5.79263V5.79138V5.79013V5.78888V5.78763V5.78638V5.78512V5.78387V5.78261V5.78135V5.78009V5.77883V5.77757V5.7763V5.77504V5.77377V5.7725V5.77123V5.76996V5.76869V5.76742V5.76615V5.76487V5.7636V5.76232V5.76104V5.75976V5.75848V5.7572V5.75592V5.75463V5.75335V5.75207V5.75078V5.74949V5.74821V5.74692V5.74563V5.74434V5.74305V5.74176V5.74047V5.73917V5.73788V5.73659V5.73529V5.734V5.7327V5.73141V5.73011V5.72881V5.72752V5.72622V5.72492V5.72362V5.72232V5.72102V5.71972V5.71842V5.71712V5.71582V5.71452V5.71322V5.71192V5.71062V5.70932V5.70801V5.70671V5.70541V5.70411V5.70281V5.7015V5.7002V5.6989V5.6976V5.69629V5.69499V5.69369V5.69239V5.69109V5.68979V5.68849V5.68718V5.68588V5.68458V5.68328V5.68198V5.68068V5.67938V5.67808V5.67679V5.67549V5.67419V5.67289V5.6716V5.6703V5.669V5.66771V5.66641V5.66512V5.66383V5.66253V5.66124V5.65995V5.65866V5.65737V5.65608V5.65479V5.6535V5.65222V5.65093V5.64964V5.64836V5.64708V5.64579V5.64451V5.64323V5.64195V5.64067V5.6394V5.63812V5.63684V5.63557V5.6343V5.63302V5.63175V5.63048V5.62921V5.62795V5.62668V5.62541V5.62415V5.62289V5.62163V5.62037V5.61911V5.61785V5.6166V5.61534V5.61409V5.61284V5.61159V5.61034V5.6091V5.60785V5.60661V5.60536V5.60413V5.60289V5.60165V5.60041V5.59918V5.59795V5.59672V5.59549V5.59427V5.59304V5.59182V5.5906V5.58938V5.58816V5.58695V5.58574V5.58452V5.58332V5.58211V5.5809V5.5797V5.5785V5.5773V5.57611V5.57491V5.57372V5.57253V5.57134V5.57016V5.56897V5.56779V5.56662V5.56544V5.56427V5.5631V5.56193V5.56076V5.5596V5.55843V5.55728V5.55612V5.55497V5.55381V5.55266V5.55152V5.55037V5.54923V5.5481V5.54696V5.54583V5.5447V5.54357V5.54245V5.54132V5.54021V5.53909V5.53798V5.53687V5.53576V5.53465V5.53355V5.53245V5.53136V5.53027V5.52918V5.52809V5.52701V5.52593V5.52485V5.52378V5.52271V5.52164V5.52057V5.51951V5.51846V5.5174V5.51635V5.5153V5.51426V5.51322V5.51218V5.51114V5.51011V5.50909V5.50806V5.50704V5.50603V5.50501V5.504V5.503V5.50199V5.501V5.5ZM10.4999 1C8.01464 1 5.99992 3.01472 5.99992 5.5V5.501V5.50199V5.503V5.504V5.50501V5.50603V5.50704V5.50806V5.50909V5.51011V5.51114V5.51218V5.51322V5.51426V5.5153V5.51635V5.5174V5.51846V5.51951V5.52057V5.52164V5.52271V5.52378V5.52485V5.52593V5.52701V5.52809V5.52918V5.53027V5.53136V5.53245V5.53355V5.53465V5.53576V5.53687V5.53798V5.53909V5.54021V5.54132V5.54245V5.54357V5.5447V5.54583V5.54696V5.5481V5.54923V5.55037V5.55152V5.55266V5.55381V5.55497V5.55612V5.55728V5.55843V5.5596V5.56076V5.56193V5.5631V5.56427V5.56544V5.56662V5.56779V5.56897V5.57016V5.57134V5.57253V5.57372V5.57491V5.57611V5.5773V5.5785V5.5797V5.5809V5.58211V5.58332V5.58452V5.58574V5.58695V5.58816V5.58938V5.5906V5.59182V5.59304V5.59427V5.59549V5.59672V5.59795V5.59918V5.60041V5.60165V5.60289V5.60413V5.60536V5.60661V5.60785V5.6091V5.61034V5.61159V5.61284V5.61409V5.61534V5.6166V5.61785V5.61911V5.62037V5.62163V5.62289V5.62415V5.62541V5.62668V5.62795V5.62921V5.63048V5.63175V5.63302V5.6343V5.63557V5.63684V5.63812V5.6394V5.64067V5.64195V5.64323V5.64451V5.64579V5.64708V5.64836V5.64964V5.65093V5.65222V5.6535V5.65479V5.65608V5.65737V5.65866V5.65995V5.66124V5.66253V5.66383V5.66512V5.66641V5.66771V5.669V5.6703V5.6716V5.67289V5.67419V5.67549V5.67679V5.67808V5.67938V5.68068V5.68198V5.68328V5.68458V5.68588V5.68718V5.68849V5.68979V5.69109V5.69239V5.69369V5.69499V5.69629V5.6976V5.6989V5.7002V5.7015V5.70281V5.70411V5.70541V5.70671V5.70801V5.70932V5.71062V5.71192V5.71322V5.71452V5.71582V5.71712V5.71842V5.71972V5.72102V5.72232V5.72362V5.72492V5.72622V5.72752V5.72881V5.73011V5.73141V5.7327V5.734V5.73529V5.73659V5.73788V5.73917V5.74047V5.74176V5.74305V5.74434V5.74563V5.74692V5.74821V5.74949V5.75078V5.75207V5.75335V5.75463V5.75592V5.7572V5.75848V5.75976V5.76104V5.76232V5.7636V5.76487V5.76615V5.76742V5.76869V5.76996V5.77123V5.7725V5.77377V5.77504V5.7763V5.77757V5.77883V5.78009V5.78135V5.78261V5.78387V5.78512V5.78638V5.78763V5.78888V5.79013V5.79138V5.79263V5.79388V5.79512V5.79636V5.7976V5.79884V5.80008V5.80131V5.80255V5.80378V5.80501V5.80624V5.80747V5.80869V5.80992V5.81114V5.81236V5.81357V5.81479V5.816V5.81721V5.81842V5.81963V5.82084V5.82204V5.82324V5.82444V5.82564V5.82683V5.82803V5.82922V5.8304V5.83159V5.83277V5.83396V5.83513V5.83631V5.83749V5.83866V5.83983V5.841V5.84216V5.84332V5.84448V5.84564V5.84679V5.84795V5.8491V5.85024V5.85139V5.85253V5.85367V5.85481V5.85594V5.85707V5.8582V5.85932V5.86045V5.86157V5.86268V5.8638V5.86491V5.86602V5.86712V5.86823V5.86933V5.87042V5.87152V5.87261V5.87369V5.87478V5.87586V5.87694V5.87801V5.87908V5.88015V5.88122V5.88228V5.88334V5.8844V5.88545V5.8865V5.88754V5.88859V5.88962V5.89066V5.89169V5.89272V5.89374V5.89477V5.89578V5.8968V5.89781V5.89882V5.89982V5.90082V5.90182V5.90281V5.9038V5.90479V5.90577V5.90675V5.90772V5.90869V5.90966V5.91062V5.91158V5.91253V5.91348V5.91443V5.91537V5.91631V5.91725V5.91818V5.91911V5.92003V5.92095V5.92186V5.92277V5.92368V5.92458V5.92548V5.92637V5.92726V5.92815V5.92903V5.92991V5.93078V5.93165V5.93251V5.93337V5.93422V5.93507V5.93592V5.93676V5.9376V5.93843V5.93926V5.93942L2.39124 9.5481C1.50045 10.4389 1 11.6471 1 12.9069V14.25C1 14.6642 1.33579 15 1.75 15H4.75C4.95422 15 5.14961 14.9167 5.29104 14.7694L6.79104 13.2069C6.92512 13.0672 7 12.8811 7 12.6875V12H7.75C7.94891 12 8.13968 11.921 8.28033 11.7803L10.0607 10H10.0615H10.0623H10.0632H10.064H10.0648H10.0657H10.0666H10.0674H10.0683H10.0691H10.07H10.0709H10.0718H10.0727H10.0735H10.0744H10.0753H10.0762H10.0771H10.0781H10.079H10.0799H10.0808H10.0817H10.0827H10.0836H10.0845H10.0855H10.0864H10.0874H10.0883H10.0893H10.0903H10.0912H10.0922H10.0932H10.0942H10.0951H10.0961H10.0971H10.0981H10.0991H10.1001H10.1011H10.1021H10.1031H10.1041H10.1052H10.1062H10.1072H10.1082H10.1093H10.1103H10.1113H10.1124H10.1134H10.1145H10.1155H10.1166H10.1176H10.1187H10.1198H10.1208H10.1219H10.123H10.1241H10.1251H10.1262H10.1273H10.1284H10.1295H10.1306H10.1317H10.1328H10.1339H10.135H10.1361H10.1372H10.1384H10.1395H10.1406H10.1417H10.1428H10.144H10.1451H10.1463H10.1474H10.1485H10.1497H10.1508H10.152H10.1531H10.1543H10.1554H10.1566H10.1578H10.1589H10.1601H10.1613H10.1624H10.1636H10.1648H10.166H10.1671H10.1683H10.1695H10.1707H10.1719H10.1731H10.1743H10.1755H10.1767H10.1779H10.1791H10.1803H10.1815H10.1827H10.1839H10.1851H10.1863H10.1876H10.1888H10.19H10.1912H10.1925H10.1937H10.1949H10.1961H10.1974H10.1986H10.1998H10.2011H10.2023H10.2036H10.2048H10.206H10.2073H10.2085H10.2098H10.211H10.2123H10.2135H10.2148H10.2161H10.2173H10.2186H10.2198H10.2211H10.2224H10.2236H10.2249H10.2261H10.2274H10.2287H10.23H10.2312H10.2325H10.2338H10.235H10.2363H10.2376H10.2389H10.2402H10.2414H10.2427H10.244H10.2453H10.2466H10.2479H10.2491H10.2504H10.2517H10.253H10.2543H10.2556H10.2569H10.2582H10.2595H10.2607H10.262H10.2633H10.2646H10.2659H10.2672H10.2685H10.2698H10.2711H10.2724H10.2737H10.275H10.2763H10.2776H10.2789H10.2802H10.2815H10.2828H10.2841H10.2854H10.2867H10.288H10.2893H10.2906H10.2919H10.2932H10.2945H10.2958H10.2971H10.2984H10.2997H10.301H10.3023H10.3036H10.3049H10.3062H10.3075H10.3088H10.3101H10.3114H10.3127H10.314H10.3153H10.3166H10.3179H10.3192H10.3205H10.3218H10.3231H10.3244H10.3257H10.327H10.3283H10.3296H10.3309H10.3322H10.3335H10.3348H10.3361H10.3374H10.3387H10.34H10.3413H10.3426H10.3438H10.3451H10.3464H10.3477H10.349H10.3503H10.3516H10.3528H10.3541H10.3554H10.3567H10.358H10.3592H10.3605H10.3618H10.3631H10.3644H10.3656H10.3669H10.3682H10.3694H10.3707H10.372H10.3732H10.3745H10.3758H10.377H10.3783H10.3796H10.3808H10.3821H10.3833H10.3846H10.3858H10.3871H10.3883H10.3896H10.3908H10.3921H10.3933H10.3946H10.3958H10.397H10.3983H10.3995H10.4007H10.402H10.4032H10.4044H10.4057H10.4069H10.4081H10.4093H10.4105H10.4118H10.413H10.4142H10.4154H10.4166H10.4178H10.419H10.4202H10.4214H10.4226H10.4238H10.425H10.4262H10.4274H10.4286H10.4298H10.4309H10.4321H10.4333H10.4345H10.4357H10.4368H10.438H10.4392H10.4403H10.4415H10.4426H10.4438H10.445H10.4461H10.4473H10.4484H10.4495H10.4507H10.4518H10.453H10.4541H10.4552H10.4563H10.4575H10.4586H10.4597H10.4608H10.4619H10.4631H10.4642H10.4653H10.4664H10.4675H10.4686H10.4697H10.4707H10.4718H10.4729H10.474H10.4751H10.4761H10.4772H10.4783H10.4793H10.4804H10.4815H10.4825H10.4836H10.4846H10.4857H10.4867H10.4877H10.4888H10.4898H10.4908H10.4919H10.4929H10.4939H10.4949H10.4959H10.4969H10.4979H10.4989H10.4999C12.9852 10 14.9999 7.98528 14.9999 5.5C14.9999 3.01472 12.9852 1 10.4999 1ZM11 4C10.4477 4 10 4.44772 10 5C10 5.55228 10.4477 6 11 6C11.5523 6 12 5.55228 12 5C12 4.44772 11.5523 4 11 4Z" fill="#000"/>
</svg>

<svg xmlns="http://www.w3.org/2000/svg" width="32" height="32" fill="none" viewBox="0 0 16 16"><path fill="#fff" d="M0 0h16v16H0z"/><path fill="#000" fill-rule="evenodd" d="M7.5 5.5a3 3 0 1 1 3 3h-.75a.75.75 0 0 0-.53.22L7.44 10.5H6.25a.75.75 0 0 0-.75.75v1.136L4.43 13.5H2.5v-.593c0-.862.342-1.689.952-2.298L7.28 6.78a.75.75 0 0 0 .22-.53zm3-4.5A4.5 4.5 0 0 0 6 5.5v.439L2.39 9.55A4.75 4.75 0 0 0 1 12.906v1.343c0 .414.336.75.75.75h3a.75.75 0 0 0 .541-.23l1.5-1.563a.75.75 0 0 0 .209-.52V12h.75a.75.75 0 0 0 .53-.22L10.06 10h.44a4.5 4.5 0 1 0 0-9m.5 3a1 1 0 1 0 0 2 1 1 0 0 0 0-2" clip-rule="evenodd"/></svg>
